images/arrow-big.svg

<svg xmlns="http://www.w3.org/2000/svg" width="56" height="451" viewBox="0 0 56 451"><path d="M38.457 450.173L27.847.338 17.433 450.144l21.024.03z" fill="#191919"/><path d="M3.2 335.898c6.52-13.717 22.927-19.55 36.644-13.03 13.717 6.52 19.55 22.926 13.03 36.643-6.52 13.718-22.926 19.55-36.643 13.03C2.515 366.02-3.32 349.616 3.2 335.9z" fill="#181818"/><path d="M18.672 343.174c2.37-4.988 8.337-7.11 13.325-4.738 4.988 2.37 7.11 8.337 4.738 13.325-2.37 4.99-8.337 7.11-13.325 4.74-4.988-2.372-7.11-8.338-4.738-13.326z" fill="#C6C6C6"/></svg>

<svg version="1.1" xmlns="http://www.w3.org/2000/svg" xmlns:xlink="http://www.w3.org/1999/xlink" width="56" height="451" viewBox="0 0 56 451">
<g id="arrow-big">
<path id="Shape-1" d="M38.457,450.173 L27.847,0.338 L17.433,450.144 L38.457,450.173 z" fill="#191919" />
<path id="Ellipse-1" d="M3.201,335.898 C9.721,322.181 26.127,316.347 39.844,322.868 C53.561,329.388 59.395,345.794 52.874,359.511 C46.353,373.228 29.948,379.061 16.231,372.541 C2.514,366.020 -3.320,349.615 3.201,335.898 z" fill="#181818" />
<path id="Ellipse-1" d="M18.672,343.174 C21.043,338.186 27.009,336.065 31.997,338.436 C36.985,340.807 39.106,346.773 36.735,351.761 C34.364,356.749 28.398,358.870 23.410,356.499 C18.422,354.128 16.301,348.162 18.672,343.174 z" fill="#C6C6C6" />
</g>
</svg>
